assets/Heart with ribbon/Flat/heart_with_ribbon_flat.svg

<svg width="32" height="32" viewBox="0 0 32 32" fill="none" xmlns="http://www.w3.org/2000/svg">
<path d="M15.0967 29.4413C15.6306 29.7417 16.2745 29.7249 16.8057 29.4197C20.1948 27.4726 26.0276 23.038 28.3248 17.2856C31.7123 9.76086 23.7583 3.75412 18.261 8.07438C17.6978 8.51704 16.9921 9.02252 16.497 9.50335C16.2577 9.73576 15.8379 9.75956 15.5903 9.53601C14.9371 8.94624 13.9368 8.19987 13.2912 7.76307C8.60458 4.59231 0.0772524 8.77191 3.71471 17.6922C5.04164 21.6795 11.344 27.3294 15.0967 29.4413Z" fill="#F92F60"/>
<path d="M4.656 25.0375L5.53561 24.6857C5.79201 24.5831 6.08299 24.7078 6.18555 24.9642L6.55154 25.8792C6.71698 26.2928 7.29988 26.2999 7.47535 25.8905L9.09826 22.1037L7.99985 20.9935V19L6.7741 20.8861L4.71707 22.8221L4.01513 24.3664C3.82862 24.7767 4.23753 25.2049 4.656 25.0375Z" fill="#FFB02E"/>
<path d="M15.3437 25.0375L14.4641 24.6857C14.2077 24.5831 13.9167 24.7078 13.8142 24.9642L13.4482 25.8792C13.2827 26.2928 12.6998 26.2999 12.5243 25.8905L10.8968 22.0928L11.3792 20.3895L11.9999 19L12.9156 20.8727L15.2911 22.8408L15.9846 24.3664C16.1711 24.7767 15.7622 25.2049 15.3437 25.0375Z" fill="#FFB02E"/>
<path d="M4.68848 22.8852L5.99995 20L7.99995 19L9.99995 20L9.07688 22.1538L4.68848 22.8852Z" fill="#FF822D"/>
<path d="M10.923 22.1538L9.99995 20L12 19L14 20L15.3114 22.8852L10.923 22.1538Z" fill="#FF822D"/>
<path d="M4.02667 21.75C5.80333 21.75 7.58 20 7.58 20C7.58 20 5.80333 18.25 4.02667 18.25C3.04544 18.25 2.25 19.0335 2.25 20C2.25 20.9665 3.04544 21.75 4.02667 21.75Z" fill="#FF6723"/>
<path d="M15.9733 21.75C14.1967 21.75 12.42 20 12.42 20C12.42 20 14.1967 18.25 15.9733 18.25C16.9546 18.25 17.75 19.0335 17.75 20C17.75 20.9665 16.9546 21.75 15.9733 21.75Z" fill="#FF6723"/>
<path d="M29.0287 15H18V20H26.9383C27.4778 19.134 27.9486 18.2274 28.3248 17.2856C28.6766 16.5041 28.9061 15.7389 29.0287 15Z" fill="#FFB02E"/>
<path d="M7.92848 15.1788C7.96767 15.0808 7.98699 14.9766 8.00626 14.8726C8.01022 14.8512 8.01418 14.8298 8.01831 14.8085C8.10764 14.3478 8.5132 14 9 14H11C11.4868 14 11.8924 14.3478 11.9817 14.8085C11.9858 14.8298 11.9898 14.8512 11.9937 14.8725C12.013 14.9765 12.0323 15.0808 12.0715 15.1788L13 17.5L12.0715 19.8212C12.0323 19.9192 12.013 20.0234 11.9937 20.1274C11.9898 20.1488 11.9858 20.1702 11.9817 20.1915C11.8924 20.6522 11.4868 21 11 21H9C8.5132 21 8.10764 20.6522 8.01831 20.1915C8.01418 20.1702 8.01022 20.1488 8.00626 20.1274C7.98699 20.0234 7.96767 19.9192 7.92848 19.8212L7 17.5L7.92848 15.1788Z" fill="#FFB02E"/>
<path d="M4 13C6 13 8 15 8 15V20C8 20 7.86443 20.1356 7.62859 20.3361C6.95858 20.9058 5.47929 22 4 22C2.89543 22 2 21.1046 2 20V15C2 13.8954 2.89543 13 4 13ZM7.25159 20C7.05074 19.8319 6.78413 19.6237 6.47265 19.416C5.74755 18.9326 4.84971 18.5 4 18.5C3.17157 18.5 2.5 19.1716 2.5 20C2.5 20.8284 3.17157 21.5 4 21.5C4.84971 21.5 5.74755 21.0674 6.47265 20.584C6.78413 20.3763 7.05074 20.1681 7.25159 20Z" fill="#FCD53F"/>
<path d="M16 13C14 13 12 15 12 15V20C12 20 12.1356 20.1356 12.3714 20.3361C13.0414 20.9058 14.5207 22 16 22C17.1046 22 18 21.1046 18 20V15C18 13.8954 17.1046 13 16 13ZM12.7484 20C12.9493 19.8319 13.2159 19.6237 13.5273 19.416C14.2524 18.9326 15.1503 18.5 16 18.5C16.8284 18.5 17.5 19.1716 17.5 20C17.5 20.8284 16.8284 21.5 16 21.5C15.1503 21.5 14.2524 21.0674 13.5273 20.584C13.2159 20.3763 12.9493 20.1681 12.7484 20Z" fill="#FCD53F"/>
</svg>

<svg xmlns="http://www.w3.org/2000/svg" width="32" height="32" fill="none"><path fill="#F92F60" d="M15.097 29.441c.534.3 1.178.284 1.709-.021 3.389-1.947 9.222-6.382 11.519-12.134C31.712 9.76 23.758 3.754 18.26 8.074c-.563.443-1.269.949-1.764 1.43-.24.232-.66.256-.907.032-.653-.59-1.653-1.336-2.299-1.773-4.686-3.17-13.214 1.009-9.576 9.93 1.327 3.986 7.629 9.636 11.382 11.748Z"/><path fill="#FFB02E" d="m4.656 25.038.88-.352a.5.5 0 0 1 .65.278l.366.915a.5.5 0 0 0 .923.011l1.623-3.786L8 20.994V19l-1.226 1.886-2.057 1.936-.702 1.544a.5.5 0 0 0 .641.672ZM15.344 25.038l-.88-.352a.5.5 0 0 0-.65.278l-.366.915a.5.5 0 0 1-.924.011l-1.627-3.797.482-1.703L12 19l.917 1.873 2.375 1.968.694 1.525a.5.5 0 0 1-.641.672Z"/><path fill="#FF822D" d="M4.688 22.885 6 20l2-1 2 1-.923 2.154-4.389.731ZM10.923 22.154 10 20l2-1 2 1 1.311 2.885-4.388-.731Z"/><path fill="#FF6723" d="M4.027 21.75C5.803 21.75 7.58 20 7.58 20s-1.777-1.75-3.553-1.75c-.982 0-1.777.784-1.777 1.75s.795 1.75 1.777 1.75ZM15.973 21.75c-1.776 0-3.553-1.75-3.553-1.75s1.777-1.75 3.553-1.75c.982 0 1.777.784 1.777 1.75s-.795 1.75-1.777 1.75Z"/><path fill="#FFB02E" d="M29.029 15H18v5h8.938c.54-.866 1.01-1.773 1.387-2.714A9.26 9.26 0 0 0 29.029 15ZM7.928 15.179c.04-.098.059-.202.078-.306l.012-.064A1 1 0 0 1 9 14h2a1 1 0 0 1 .994.873c.019.104.038.208.078.306L13 17.5l-.928 2.321c-.04.098-.059.202-.078.306A1 1 0 0 1 11 21H9a1 1 0 0 1-.982-.808l-.012-.065a1.605 1.605 0 0 0-.078-.306L7 17.5l.928-2.321Z"/><path fill="#FCD53F" d="M4 13c2 0 4 2 4 2v5s-.136.136-.371.336C6.959 20.906 5.479 22 4 22a2 2 0 0 1-2-2v-5a2 2 0 0 1 2-2Zm3.252 7a9.049 9.049 0 0 0-.78-.584C5.749 18.933 4.85 18.5 4 18.5a1.5 1.5 0 0 0 0 3c.85 0 1.748-.433 2.473-.916.311-.208.578-.416.779-.584ZM16 13c-2 0-4 2-4 2v5s.136.136.371.336c.67.57 2.15 1.664 3.629 1.664a2 2 0 0 0 2-2v-5a2 2 0 0 0-2-2Zm-3.252 7c.201-.168.468-.376.78-.584.724-.483 1.622-.916 2.472-.916a1.5 1.5 0 0 1 0 3c-.85 0-1.748-.433-2.473-.916a9.068 9.068 0 0 1-.779-.584Z"/></svg>
